X:1
T:Banks of Newfoundland
M:4/4
L:1/4
K:G
 A,/2A,/2| A3/2 E/2 F G| A3/2 G/2 c d/2c/2| A3/2 G/2 D D| D3 F| G A/2A/2 B d/2d/2|\
 e d BA/2-B/2| c A B c| A3A/2-B/2| c/2c/2 E F G| d d2 e| d B A G| C3 A,|\
 D D/2E/2 F G| A3/2 G/2 cd/2-c/2| A G/2G/2 D D| D3|| A/2B/2| c E F G|\
 d d d e| d B A G| C3 A,| DD/2-E/2 F G/2G/2| A G c d/2c/2| A G/2G/2 D D|\
 D3||
